X: 18438
T: Huntington Castle
R: waltz
M: 3/4
K: Eminor
B,2|:E3 FE2|G4 A2|B4 A2|F3 ED2|E3 FE2|G4 A2|B3 AB2|d4 e2|
f3 ed2|Bd3 B2|A3 BA2|F3 ED2|E3 FE2|G2 A2 B2|AG3 F2|1 .E4B,2:|2 .E4 d2||
|:e3 fe2|d3 cB2|A2 B2 A2|F3 ED2|E2 e2 e2|e3 fg2|f2 e2 ^d2|e4f2|
g3 af2|e3 fd2|B2 d2 A2|F3 ED2|E3 FE2|G2 A2 B2|AG3 F2|1 .E4 d2:|2 .E6||

